X: 24
T: Castle, The
C: Sean Ryan
Z: shanachie
S: https://thesession.org/tunes/273#setting50520
R: jig
M: 6/8
L: 1/8
K: Ador
|:BcA BAG|AGE DB,G,|A,2A, EDB,|DEG AGE|
cBA BAG|AGE DB,G,|A,2A, EDB,|DB,G, A,2B:|
cBA a2a|bag edB|GBd g2g|age dBG|
Ace a2a|bag edB|GBd g2g|edB A2A|
Ace a2a|bag edB|GBd g2g|GBd GBd|
cBc dcd|ede gab|age dBG|EFG A2B||

